X:1
T:Title
%%score { 1 | 2 }
L:1/8
M:4/4
K:Gb
V:1 treble nm="Grand Piano"
V:2 bass 
V:1
 z4 z2[Q:1/4=108] D2 | B2 B2 c2 B2 | [FA]2 [GB]2 [Ac]2 D2 | [Fc]2 [Fc]2 [Fd]2 [Fc]2 | %4
[M:7/8] [GB]2 [Ac]2 [Bd]3 |[M:1/4] D2 |[M:4/4] B2 B2 c2 B2 |[M:9/8] [=DB]3 [DA] [EG]2- [EG] [EG]2 | %8
[M:4/4] [EG]3 E DDFF |[M:3/4] G6 |[M:1/4] D2 |[M:4/4] GFGA BABc | B2 A2 G2 B2 | B3 B =cccc | %14
[M:3/4] [Fd]6 |[M:1/4] D2 |[M:4/4] E2 F2 G2 c2 | %17
[M:9/8] B2 [EG__B]- [EGB] [=DF_B]2- [DFB][K:bass] [G,CE]2 | %18
[M:4/4] [G,B,D]2[K:treble] [Dd]2 [Dd]2 [Fc]2 |[M:9/8] [GB]3 [FA]3 G3 |] %20
V:2
 z4 z2 [G,B,]2 | [G,DG]2 [G,DG]2 [G,EG]2 [G,DG]2 | [D,D]2 [D,D]2 [D,D]2 [D,F,]2 | %3
 [D,A,]2 [D,A,]2 [D,A,]2 [D,D]2 |[M:7/8] [G,D]2 [G,D]2 [G,D]3 |[M:1/4] [G,B,]2 | %6
[M:4/4] [G,DG]2 [G,DG]2 [G,EG]2 [G,DG]2 |[M:9/8] [B,,B,]3 [B,,B,] [C,G,]2- [C,G,] [C,C]2 | %8
[M:4/4] [C,C]3 [C,G,C] [D,G,B,][D,G,B,][D,CD][D,CD] |[M:3/4] [G,B,D]6 |[M:1/4] D,2 | %11
[M:4/4] G,F,G,A, B,A,B,C | B,2 A,2 G,2[K:treble] [G,DG]2 | [G,DG]3 [G,DG] [A,G][A,G][A,G][A,G] | %14
[M:3/4][K:bass] [D,A,]6 |[M:1/4] D,2 |[M:4/4] E,2 F,2 G,2 C2 |[M:9/8] B,2 G,- G, B,,2- B,, C,2 | %18
[M:4/4] D,2 [D,B,]2 [D,B,]2 [D,D]2 |[M:9/8] [D,D]3 [D,C]3 [G,B,]3 |] %20

